!!!Genre:	Freylekhs
!!!Mode:	Freygish
!!!Listening/dance:	listening
!!!:	*B-:
!!!One_Mode:	no
!!!Orig_tonic: A
**kern
*I"P1
*clefG2
*k[b-e-a-]
*G:frey
*M2/4
*>A
=1
8.bntL
16gJk
16ddLL
16cc
16bn
16a-JJ
=2
16gLL
16ccJ
8gJ
8GL
8gJ
=3
16bnLL
16g
16b
16ddJJ
16ccLL
16b
16cc
16a-JJ
=4
16gLL
16bnJ
8gJ
8GL
8gJ
=5
16bnLL
16g
16b
16ddJJ
16ccLL
16g
16cc
16ee-JJ
=6
16ddLL
16g
16dd
16ee-JJ
16ffLL
16ee-
16dd
16ccJJ
=7
16bnLL
16cc
16dd
16ee-JJ
16ddLL
16cc
16b
16a-JJ
*>A1
=8
16gLL
16bnJ
8gJ
8GL
8gJ
*>A2
=9:|!
(16a-LL
16gJJ)
4g
8g
*>bM
*c:
!LO:TX:a:i:t=C-minor
=10!|:
*>B
[4cc
16ccLL]
16g
16ee-
16ddJJ
=11
[4cc
16ccLL]
16g
16ee-
16ddJJ
=12
16ccLL
16g
16ee-
16ddJJ
16ccLL
16g
16ee-
16ddJJ
=13
8ccL
(16aa-'L
16gg'JJ
16ff'LL
16ee-'
16dd'
16cc'JJ)
*>eM
*>bM
*B-:
!LO:TX:a:i:t=Bb-major
=14
[4b-X
16b-LL]
16f
16dd
16ccJJ
=15
[4b-
16b-LL]
16f
16dd
16ccJJ
=16
16b-LL
16f
16dd
16ccJJ
16b-LL
16f
16dd
16ccJJ
*>bM1
=17
[4b-
16b-LL]
16g
16an
16bnJJ
*>bM2
=18:|!
4.b-X
(8gg
*>eM
*G:frey
*>C
!LO:TX:a:i:t=G-freygish
=19
16aa-LL)
(16gg
16ff)
(16ggJJ
16aa-LL)
(16gg
16bb-X)
(16aa-JJ
=20
16ggLL)
(16ff
16een)
(16ffJJ
16ggLL)
(16ff
16aa-)
(16ggJJ
=21
16ffLL)
(16ee-X
16dd)
(16ee-JJ
16ffLL)
(16ee-
16gg)
(16ffJJ
=22
16ee-LL)
(16dd
16cc)
(16ddJJ
16ee-LL)
(16dd
16ff)
(16ee-JJ
=23
16ddLL)
(16cc
16bn)
(16ccJJ
16ddLL)
(16cc
16ee-)
(16ddJJ
=24
16ccLL)
(16bn
16a-)
(16bJJ
16ccLL)
(16b
16dd)
(16ccJJ
=25
16bnLL)
16f'
16g'
16a-'JJ
16b'LL
16cc'
16b't
16a-'JJ
*>C1
=26
(16a-LL
16gJJ)
4g
8gg
*>C2
=27:|!
(16a-LL
16gJJ)
4g
8r
==
*-
